X:3849
T:Lucy Farr's Own Reel
O:england
R:Reel
S:Lucy Farr, Galway (fiddle).
D:Lucy Farr - 'Hearth and Home'
Q:300
M:4/4
K:G
|: B2BA BddB | A2AG ABBA | B2BA BddB | AGAB G3A :: Bddd eddd | BddB BAAA |
Bddd eddB | AGAB G3A | Bddd Bddd | BddB c2Bc | A2AG A2Bc | dBAB G3A :|


